.forestry/content/images/worker.svg

<svg viewBox="0 0 98.2 98.2" xmlns="http://www.w3.org/2000/svg"><g fill="#fff"><path d="m20.1 98.7v-14.5a20.16 20.16 0 0 1 15.9-19.81l12.9-2.87v-4.61l-.21-.15a18.76 18.76 0 0 1 -7.79-15.16v-8.74l-.15-.14a7.42 7.42 0 0 1 -.85-1l-.15-.22h-6.85v-2.2h3.2v-3.7a23.52 23.52 0 0 1 19-23l.28-.05.1-.26a2.7 2.7 0 0 1 2.52-1.79h3.2a2.7 2.7 0 0 1 2.52 1.77l.1.26.27.05a23.52 23.52 0 0 1 19 23v3.7h3.2v2.2h-6.84l-.15.22a8 8 0 0 1 -.85 1l-.15.14v8.76a18.76 18.76 0 0 1 -7.79 15.16l-.21.15v4.61l12.9 2.87a20.16 20.16 0 0 1 15.9 19.81v14.5zm63-2.2h13.8v-12.3a17.91 17.91 0 0 0 -13.16-17.4l-.64-.18zm-22.4 0h20.2v-4.2h-20.2zm-22.4 0h20.2v-4.2h-20.2zm-2.84-29.7a17.91 17.91 0 0 0 -13.16 17.4v12.3h13.8v-29.88zm25.24 16.77v6.53h20.2v-24l-6.1-1.36zm-22.4-17.44v24h20.2v-6.56l-14.1-18.8zm16.58 8.94 4.72 6.3 4.72-6.29-4.72-4.72zm5.51-7 5.26 5.26 6.79-9-3.1-.69zm-13.63-3.8 6.79 9.06 5.26-5.33-9-4.47zm4.34-2.52 8.5 4.25 8.5-4.25v-3.5l-.71.33a18.5 18.5 0 0 1 -15.58 0l-.71-.33zm-7.74-17.35a16.48 16.48 0 0 0 32.49 0l.16-1-1.34.68a17.17 17.17 0 0 1 -7.67 1.82h-2.6a3.32 3.32 0 0 1 -3.15-2.27l-.59-1.76a1.13 1.13 0 0 0 -2.12 0l-.54 1.76a3.31 3.31 0 0 1 -3.2 2.27h-2.62a17.17 17.17 0 0 1 -7.65-1.8l-1.34-.68zm16.24-5.5a3.32 3.32 0 0 1 3.15 2.27l.59 1.76a1.12 1.12 0 0 0 1.06.77h2.6a14.92 14.92 0 0 0 6.66-1.57l2.42-1.21v-6.65l-.63.17a7.11 7.11 0 0 1 -1.85.26h-28a7 7 0 0 1 -1.85-.26l-.63-.17v6.65l2.41 1.21a15 15 0 0 0 6.67 1.57h2.6a1.12 1.12 0 0 0 1.06-.76l.59-1.77a3.31 3.31 0 0 1 3.15-2.27zm-18.22-9a4.67 4.67 0 0 0 4.2 2.59h28a4.67 4.67 0 0 0 4.2-2.59l.3-.61h2.82v-3.69a21.48 21.48 0 0 0 -16.38-20.7l-.62-.15v7.55h-2.2v-9.6h-4.2v9.6h-2.2v-7.55l-.61.15a21.48 21.48 0 0 0 -16.39 20.7v3.7h2.78z" transform="translate(-.9 -.5)"/><path d="m44.1 28.3v-2.2h10.15l-.61-.8a7.4 7.4 0 0 1 -1.54-4.5 7.5 7.5 0 1 1 15 0 7.4 7.4 0 0 1 -1.54 4.5l-.61.8h10.15v2.2zm15.5-12.8a5.3 5.3 0 1 0 5.3 5.3 5.31 5.31 0 0 0 -5.3-5.3z" transform="translate(-.9 -.5)"/><path d="m64 83.2h11.8v2.2h-11.8z"/><g transform="translate(-.9 -.5)"><path d="m18 55.5a5.91 5.91 0 0 1 -5.9-5.9v-.27a5.92 5.92 0 0 1 .84-3l5.06-8.47 5.06 8.43a5.92 5.92 0 0 1 .84 3v.27a5.91 5.91 0 0 1 -5.9 5.94zm-3.17-8.07a3.63 3.63 0 0 0 -.53 1.9v.27a3.7 3.7 0 1 0 7.4 0v-.27a3.63 3.63 0 0 0 -.53-1.9l-3.17-5.29z"/><path d="m13.7 65.1v-3.89l-.33-.12a12.63 12.63 0 0 1 -1.37-.56l-.31-.14-2.69 2.74-6.13-6.08 2.74-2.75-.15-.3a13.68 13.68 0 0 1 -.55-1.35l-.12-.33h-3.89v-8.62h3.89l.12-.33a13.23 13.23 0 0 1 .56-1.37l.15-.32-2.75-2.68 6.13-6.13 2.75 2.75.32-.16a12 12 0 0 1 1.35-.55l.33-.12v-3.89h8.6v3.89l.34.12a12.61 12.61 0 0 1 1.34.55l.32.16 2.75-2.75 6.03 6.13-2.74 2.7.15.32a12.76 12.76 0 0 1 .55 1.35l.12.33h3.89v8.6h-3.89l-.12.33a13.23 13.23 0 0 1 -.56 1.37l-.15.32 2.75 2.75-6.08 6.08-2.75-2.77-.32.16a14.15 14.15 0 0 1 -1.35.55l-.33.12v3.89zm2.2-2.2h4.2v-3.37l.82-.21a11.74 11.74 0 0 0 3-1.25l.74-.43 2.39 2.36 3-3-2.38-2.38.43-.74a11.74 11.74 0 0 0 1.25-3l.21-.82h3.34v-4.16h-3.37l-.21-.82a11.89 11.89 0 0 0 -1.25-3l-.43-.74 2.36-2.34-3-3-2.38 2.38-.74-.43a11.74 11.74 0 0 0 -3-1.25l-.82-.21v-3.39h-4.16v3.37l-.82.21a11.74 11.74 0 0 0 -3 1.25l-.74.43-2.34-2.36-3 3 2.38 2.38-.43.74a11.74 11.74 0 0 0 -1.25 3l-.21.82h-3.39v4.2h3.37l.21.82a11.89 11.89 0 0 0 1.25 3l.43.74-2.36 2.35 3 3 2.38-2.38.74.43a11.82 11.82 0 0 0 3 1.25l.83.21z"/></g></g></svg>

<?xml version="1.0" encoding="UTF-8"?> <svg xmlns="http://www.w3.org/2000/svg" id="Layer_1" data-name="Layer 1" viewBox="0 0 98.2 98.2"><defs><style>.cls-1{fill:#fff;}</style></defs><title>worker</title><g id="About"><path class="cls-1" d="M20.1,98.7V84.2A20.16,20.16,0,0,1,36,64.39l12.9-2.87V56.91l-.21-.15A18.76,18.76,0,0,1,40.9,41.6V32.86l-.15-.14a7.42,7.42,0,0,1-.85-1l-.15-.22H32.9V29.3h3.2V25.6a23.52,23.52,0,0,1,19-23l.28-.05.1-.26A2.7,2.7,0,0,1,58,.5h3.2a2.7,2.7,0,0,1,2.52,1.77l.1.26.27.05a23.52,23.52,0,0,1,19,23v3.7h3.2v2.2H79.45l-.15.22a8,8,0,0,1-.85,1l-.15.14V41.6a18.76,18.76,0,0,1-7.79,15.16l-.21.15v4.61l12.9,2.87A20.16,20.16,0,0,1,99.1,84.2V98.7Zm63-2.2H96.9V84.2A17.91,17.91,0,0,0,83.74,66.8l-.64-.18Zm-22.4,0H80.9V92.3H60.7Zm-22.4,0H58.5V92.3H38.3ZM35.46,66.8A17.91,17.91,0,0,0,22.3,84.2V96.5H36.1V66.62ZM60.7,83.57V90.1H80.9v-24l-6.1-1.36ZM38.3,66.13v24H58.5V83.57L44.4,64.77Zm16.58,8.94,4.72,6.3,4.72-6.29L59.6,70.36Zm5.51-7,5.26,5.26,6.79-9-3.1-.69Zm-13.63-3.8,6.79,9.06L58.81,68l-9-4.47Zm4.34-2.52L59.6,66l8.5-4.25V58.25l-.71.33a18.5,18.5,0,0,1-15.58,0l-.71-.33ZM43.36,44.4a16.48,16.48,0,0,0,32.49,0l.16-1-1.34.68A17.17,17.17,0,0,1,67,45.9H64.4a3.32,3.32,0,0,1-3.15-2.27l-.59-1.76a1.13,1.13,0,0,0-2.12,0L58,43.63A3.31,3.31,0,0,1,54.8,45.9H52.18a17.17,17.17,0,0,1-7.65-1.8l-1.34-.68ZM59.6,38.9a3.32,3.32,0,0,1,3.15,2.27l.59,1.76a1.12,1.12,0,0,0,1.06.77H67a14.92,14.92,0,0,0,6.66-1.57l2.42-1.21V34.27l-.63.17a7.11,7.11,0,0,1-1.85.26h-28a7,7,0,0,1-1.85-.26l-.63-.17v6.65l2.41,1.21a15,15,0,0,0,6.67,1.57H54.8a1.12,1.12,0,0,0,1.06-.76l.59-1.77A3.31,3.31,0,0,1,59.6,38.9Zm-18.22-9a4.67,4.67,0,0,0,4.2,2.59h28a4.67,4.67,0,0,0,4.2-2.59l.3-.61H80.9V25.6A21.48,21.48,0,0,0,64.52,4.9l-.62-.15V12.3H61.7V2.7H57.5v9.6H55.3V4.75l-.61.15A21.48,21.48,0,0,0,38.3,25.6v3.7h2.78Z" transform="translate(-0.9 -0.5)"></path><path class="cls-1" d="M44.1,28.3V26.1H54.25l-.61-.8a7.4,7.4,0,0,1-1.54-4.5,7.5,7.5,0,1,1,15,0,7.4,7.4,0,0,1-1.54,4.5l-.61.8H75.1v2.2ZM59.6,15.5a5.3,5.3,0,1,0,5.3,5.3A5.31,5.31,0,0,0,59.6,15.5Z" transform="translate(-0.9 -0.5)"></path><rect class="cls-1" x="64" y="83.2" width="11.8" height="2.2"></rect><path class="cls-1" d="M18,55.5a5.91,5.91,0,0,1-5.9-5.9v-.27a5.92,5.92,0,0,1,.84-3L18,37.86l5.06,8.43a5.92,5.92,0,0,1,.84,3v.27A5.91,5.91,0,0,1,18,55.5Zm-3.17-8.07a3.63,3.63,0,0,0-.53,1.9v.27a3.7,3.7,0,1,0,7.4,0v-.27a3.63,3.63,0,0,0-.53-1.9L18,42.14Z" transform="translate(-0.9 -0.5)"></path><path class="cls-1" d="M13.7,65.1V61.21l-.33-.12A12.63,12.63,0,0,1,12,60.53l-.31-.14L9,63.13,2.87,57.05,5.61,54.3,5.46,54a13.68,13.68,0,0,1-.55-1.35l-.12-.33H.9V43.7H4.79l.12-.33A13.23,13.23,0,0,1,5.47,42l.15-.32L2.87,39,9,32.87l2.75,2.75.32-.16a12,12,0,0,1,1.35-.55l.33-.12V30.9h8.6v3.89l.34.12a12.61,12.61,0,0,1,1.34.55l.32.16,2.75-2.75L33.13,39,30.39,41.7l.15.32a12.76,12.76,0,0,1,.55,1.35l.12.33H35.1v8.6H31.21l-.12.33A13.23,13.23,0,0,1,30.53,54l-.15.32,2.75,2.75-6.08,6.08L24.3,60.38l-.32.16a14.15,14.15,0,0,1-1.35.55l-.33.12V65.1Zm2.2-2.2h4.2V59.53l.82-.21a11.74,11.74,0,0,0,3-1.25l.74-.43L27.05,60l3-3-2.38-2.38.43-.74a11.74,11.74,0,0,0,1.25-3l.21-.82H32.9V45.9H29.53l-.21-.82a11.89,11.89,0,0,0-1.25-3l-.43-.74L30,39l-3-3-2.38,2.38-.74-.43a11.74,11.74,0,0,0-3-1.25l-.82-.21V33.1H15.9v3.37l-.82.21a11.74,11.74,0,0,0-3,1.25l-.74.43L9,36,6,39l2.38,2.38-.43.74a11.74,11.74,0,0,0-1.25,3l-.21.82H3.1v4.2H6.47l.21.82a11.89,11.89,0,0,0,1.25,3l.43.74L6,57.05l3,3,2.38-2.38.74.43a11.82,11.82,0,0,0,3,1.25l.83.21Z" transform="translate(-0.9 -0.5)"></path></g></svg>
